assets/Shuffle tracks button/Flat/shuffle_tracks_button_flat.svg

<svg width="32" height="32" viewBox="0 0 32 32" fill="none" xmlns="http://www.w3.org/2000/svg">
<path d="M2 6C2 3.79086 3.79086 2 6 2H26C28.2091 2 30 3.79086 30 6V26C30 28.2091 28.2091 30 26 30H6C3.79086 30 2 28.2091 2 26V6Z" fill="#00A6ED"/>
<path d="M25.8352 11.8454C26.0299 11.6502 26.0299 11.3342 25.8352 11.1391L22.8227 8.11954C22.5079 7.80399 21.9688 8.02695 21.9688 8.47268V10H20.3681C20.2041 10 19.9034 10.024 19.6431 10.046C17.6928 10.2108 15.8889 11.2991 14.9511 13.1172C14.8599 13.294 14.7687 13.4719 14.6773 13.6501L14.6766 13.6514C14.0974 14.7812 13.5102 15.9263 12.8715 16.9033C12.0872 18.1029 11.4577 18.6689 11.0302 18.8099C10.7259 18.9102 10.2386 18.9712 9.70636 18.9944C9.31486 19.0114 9.00702 19.006 8.79419 19.0023C8.72395 19.0011 8.66397 19 8.61484 19H6.5C6.22386 19 6 19.2239 6 19.5V21.5C6 21.7762 6.22386 22 6.5 22H8.61481L8.61733 22L8.62534 22.0001L8.65336 22.0005L8.74359 22.0021C8.81631 22.0034 8.9107 22.0049 9.02052 22.0056C9.23965 22.007 9.52332 22.0052 9.83692 21.9915C10.4296 21.9657 11.2576 21.8938 11.9698 21.6589C13.4646 21.1659 14.5792 19.7734 15.3824 18.5449C16.1156 17.4236 16.7836 16.1191 17.3562 15.0011C17.4456 14.8266 17.5326 14.6566 17.6173 14.4925C18.042 13.6691 18.8843 13.1208 19.8956 13.0354C20.0367 13.0235 20.1566 13.014 20.2487 13.0076C20.2948 13.0044 20.3301 13.0023 20.3553 13.001L20.3773 13H21.9688V14.5117C21.9688 14.9575 22.5079 15.1804 22.8227 14.8649L25.8352 11.8454Z" fill="white"/>
<path d="M19.6431 21.96C19.9034 21.982 20.2041 22.006 20.3681 22.006H21.9688V23.5196C21.9688 23.9653 22.5079 24.1882 22.8227 23.8727L25.8352 20.8532C26.0299 20.658 26.0299 20.3421 25.8352 20.1469L22.8227 17.1274C22.5079 16.8118 21.9688 17.0348 21.9688 17.4805V19.006H20.3773L20.3553 19.005C20.3301 19.0037 20.2948 19.0016 20.2487 18.9984C20.1566 18.992 20.0367 18.9826 19.8956 18.9707C19.0442 18.8987 18.3402 18.5335 17.8855 17.9285C17.7699 17.7748 17.5263 17.7643 17.4221 17.9259L16.0374 20.0747C15.9741 20.1729 15.9869 20.3023 16.0716 20.3827C17.039 21.3006 18.3066 21.8471 19.6431 21.96Z" fill="white"/>
<path d="M9.63195 10C9.79595 10 10.0966 10.024 10.3569 10.046C11.769 10.1653 12.9634 10.641 13.9282 11.6362C14.0688 11.7813 14.0942 12 14.0018 12.1796C13.745 12.6789 13.2116 13.6986 12.796 14.3771C12.6575 14.6032 12.3403 14.5794 12.2188 14.3438C11.794 13.5204 11.1157 13.1208 10.1044 13.0354C9.96327 13.0235 9.84337 13.014 9.7513 13.0076C9.7052 13.0044 9.66994 13.0023 9.64471 13.001L9.62272 13H6.5C6.22386 13 6 12.7762 6 12.5V10.5C6 10.2239 6.22386 10 6.5 10H9.63195Z" fill="white"/>
</svg>

<svg xmlns="http://www.w3.org/2000/svg" width="32" height="32" fill="none"><path fill="#00A6ED" d="M2 6a4 4 0 0 1 4-4h20a4 4 0 0 1 4 4v20a4 4 0 0 1-4 4H6a4 4 0 0 1-4-4V6Z"/><path fill="#fff" d="M25.835 11.845a.5.5 0 0 0 0-.706l-3.012-3.02a.5.5 0 0 0-.854.354V10h-1.6c-.165 0-.466.024-.726.046-1.95.165-3.754 1.253-4.692 3.071l-.274.533v.001c-.58 1.13-1.167 2.275-1.806 3.252-.784 1.2-1.413 1.766-1.84 1.907-.305.1-.792.161-1.325.184-.391.017-.699.012-.912.008L8.614 19H6.5a.5.5 0 0 0-.5.5v2a.5.5 0 0 0 .5.5h2.153l.09.002.278.004c.219.001.502 0 .816-.015.593-.025 1.42-.097 2.133-.332 1.495-.493 2.61-1.886 3.412-3.114.734-1.121 1.402-2.426 1.974-3.544l.261-.508c.425-.824 1.267-1.372 2.279-1.458a25.266 25.266 0 0 1 .46-.034l.021-.001h1.592v1.512a.5.5 0 0 0 .854.353l3.012-3.02Z"/><path fill="#fff" d="M19.643 21.96c.26.022.561.046.725.046h1.6v1.514a.5.5 0 0 0 .855.353l3.012-3.02a.5.5 0 0 0 0-.706l-3.012-3.02a.5.5 0 0 0-.854.354v1.525h-1.592l-.022-.001a25.052 25.052 0 0 1-.46-.034c-.85-.072-1.555-.438-2.01-1.043-.115-.153-.359-.164-.463-.002l-1.385 2.149a.243.243 0 0 0 .035.308 5.904 5.904 0 0 0 3.571 1.577ZM9.632 10c.164 0 .465.024.725.046 1.412.12 2.606.595 3.571 1.59a.47.47 0 0 1 .074.544c-.257.499-.79 1.519-1.206 2.197-.138.226-.456.202-.577-.033-.425-.824-1.103-1.223-2.115-1.309a25.338 25.338 0 0 0-.46-.034L9.624 13H6.5a.5.5 0 0 1-.5-.5v-2a.5.5 0 0 1 .5-.5h3.132Z"/></svg>
